X:1
T:The Highland Muster Roll
M:3/4
L:1/8
K:C
 C/2 C3/2 C3/2 C/2 C2 E/2 G3/2| C/2 C3/2 C3/2 C/2 C2 A,/2 G,3/2| C/2 C3/2 C3/2 C/2E-G A/2 G3/2|\
 c3/2 C/2 C3/2 C/2 E2 D/2 C z/2| G3/2 C/2 CC A2 C/2C/2 C| G/2G/2 C C3/2 C/2 F2 _B,/2 B, B,/2|\
 G3/2 C/2 C3/2 C/2c/2 c3/2 C/2 C3/2| F3/2 D/2_B,/2 B,3/2 B3/2 B/2|\
 F/2 D3/2|
M:3/4
 z4 z C| G4 C2| c4 C2|
M:4/4
 G3 C E4| z4 z2 C2| G3 C c3 C| G3 C D3 C| G3 C A3 C/2C/2|
M:3/4
 G2 E2 E2| F/2 F F/2 _B,2 B3/2 B/2| F/2 D3/2|
